X: 142
T:Farewell to Ireland
M:C|
L:1/8
R:reel
Z:Devin McCabe
K:ADor
~A,3C ~E3F | GEDB, G,B,DB, | ~A,3C ~E3F | GEDG EA,A,G, |
!~A,3C ~E3F | GEDB, D3g | edeg a2ba | gedB BAA2 :|
!:~a3g agef | ~g3a gedg | eaag agef | gedB BAA2 |
!agef ~g3e | d~B3 GABd | cAdA (3B^cd ef | gedB BAA2 :|
!:eABA eABA | d2dB GABd | eABA eAAa | gedB BAA2 |
!eABA eABA | d2dB GABd | cAdA (3B^cd ef | gedB BAA2 :|
!:ae^ce aece | gdBd gdBd | ae^ce ~a3f | gedB BAA2 |
!agef ~g3e | d~B3 GABd | cAdA (3B^cd ef | gedB BAA2 :|
